packages/core/src/svgs/cudos.svg

<svg width="24" height="24" viewBox="0 0 24 24" fill="none" xmlns="http://www.w3.org/2000/svg">
<g clip-path="url(#clip0_31_8862)">
<path d="M0 0H24V24H0V0Z" fill="url(#paint0_linear_31_8862)"/>
<path fill-rule="evenodd" clip-rule="evenodd" d="M17.4514 6.54022C16.0033 5.09441 14.0402 4.28306 11.9939 4.28467C9.94762 4.28628 7.98578 5.1007 6.53997 6.54879C5.09416 7.99687 4.28282 9.95999 4.28443 12.0063C4.28603 14.0526 5.10046 16.0144 6.54854 17.4602C7.99662 18.906 9.95974 19.7174 12.006 19.7158C14.0523 19.7142 16.0142 18.8997 17.46 17.4516C18.9058 16.0036 19.7171 14.0404 19.7155 11.9942C19.7139 9.94786 18.8995 7.98602 17.4514 6.54022ZM11.5714 18.8574C9.82114 18.7717 8.17117 18.015 6.96426 16.7445C5.77189 15.4547 5.11993 13.7566 5.14283 12.0002C5.11882 10.2424 5.77086 8.5425 6.96426 7.25164C8.17187 5.98275 9.82175 5.22764 11.5714 5.14307V7.71022C10.5075 7.80777 9.51921 8.30192 8.80283 9.0945C8.08868 9.89245 7.70018 10.9295 7.71426 12.0002C7.71426 13.0716 8.07854 14.1088 8.80283 14.9016C9.5314 15.6988 10.5 16.1874 11.5714 16.2859V18.8574ZM17.0228 16.7445C15.81 18.0302 14.1943 18.7545 12.4285 18.8574V16.2859C13.2255 16.2094 13.9853 15.9119 14.6225 15.4271C15.2597 14.9423 15.7489 14.2893 16.0353 13.5417C16.3216 12.794 16.3937 11.9812 16.2433 11.1948C16.093 10.4084 15.7262 9.67955 15.1843 9.09022C14.4715 8.30129 13.4875 7.81006 12.4285 7.7145V5.14307C13.7364 5.20195 14.9989 5.64012 16.062 6.40416C17.1251 7.16821 17.9429 8.22509 18.4157 9.44593C18.9014 10.669 19.0284 12.0053 18.7817 13.298C18.535 14.5907 17.9248 15.7862 17.0228 16.7445ZM12 15.4288C12.9093 15.4288 13.7814 15.0676 14.4243 14.4246C15.0673 13.7816 15.4285 12.9095 15.4285 12.0002C15.4285 11.0909 15.0673 10.2188 14.4243 9.57585C13.7814 8.93287 12.9093 8.57164 12 8.57164C11.0907 8.57164 10.2186 8.93287 9.57561 9.57585C8.93262 10.2188 8.5714 11.0909 8.5714 12.0002C8.5714 12.9095 8.93262 13.7816 9.57561 14.4246C10.2186 15.0676 11.0907 15.4288 12 15.4288Z" fill="url(#paint1_linear_31_8862)"/>
</g>
<defs>
<linearGradient id="paint0_linear_31_8862" x1="4.46571" y1="4.16143" x2="29.2071" y2="32.58" gradientUnits="userSpaceOnUse">
<stop stop-color="#1A1E21"/>
<stop offset="1" stop-color="#06060A"/>
</linearGradient>
<linearGradient id="paint1_linear_31_8862" x1="4.60283" y1="15.3345" x2="19.1443" y2="8.39593" gradientUnits="userSpaceOnUse">
<stop stop-color="#2D9DFD"/>
<stop offset="1" stop-color="#36D5FD"/>
</linearGradient>
<clipPath id="clip0_31_8862">
<rect width="24" height="24" fill="white"/>
</clipPath>
</defs>
</svg>

<svg xmlns="http://www.w3.org/2000/svg" width="24" height="24" fill="none" viewBox="0 0 24 24"><g clip-path="url(#a)"><path fill="url(#b)" d="M0 0h24v24H0z"/><path fill="url(#c)" fill-rule="evenodd" d="M17.451 6.54A7.716 7.716 0 1 0 6.55 17.46 7.716 7.716 0 0 0 17.45 6.54m-5.88 12.317a6.81 6.81 0 0 1-4.607-2.113A6.86 6.86 0 0 1 5.143 12a6.86 6.86 0 0 1 1.821-4.748 6.81 6.81 0 0 1 4.607-2.109V7.71a4.26 4.26 0 0 0-2.768 1.385A4.27 4.27 0 0 0 7.714 12c0 1.072.365 2.109 1.089 2.902a4.25 4.25 0 0 0 2.768 1.384zm5.452-2.113c-1.213 1.286-2.829 2.01-4.594 2.113v-2.571a4.302 4.302 0 0 0 2.755-7.196 4.23 4.23 0 0 0-2.755-1.375V5.143a6.75 6.75 0 0 1 5.987 4.303 6.92 6.92 0 0 1-1.393 7.298M12 15.43a3.428 3.428 0 1 0 0-6.857 3.428 3.428 0 0 0 0 6.857" clip-rule="evenodd"/></g><defs><linearGradient id="b" x1="4.466" x2="29.207" y1="4.161" y2="32.58" gradientUnits="userSpaceOnUse"><stop stop-color="#1A1E21"/><stop offset="1" stop-color="#06060A"/></linearGradient><linearGradient id="c" x1="4.603" x2="19.144" y1="15.335" y2="8.396" gradientUnits="userSpaceOnUse"><stop stop-color="#2D9DFD"/><stop offset="1" stop-color="#36D5FD"/></linearGradient><clipPath id="a"><path fill="#fff" d="M0 0h24v24H0z"/></clipPath></defs></svg>
